X:1
T:The Two Sisters
M:6/8
L:1/8
K:G
 d| d2 d dcB| c2 B A2 A| B2 G F2 G| A2 F D3| G3 A3| BBB A2 A| A2 e e2 e|\
 d3 z2|
